calendar-cursor.svg

<svg fill="currentColor" viewBox="0 0 24 24"><path d="M22.86 17.74c-.09.11-.21.17-.33.2l-1.87.36 1.29 2.84c.16.29.02.65-.28.79l-2.14 1.01c-.09.06-.17.06-.26.06-.22 0-.43-.12-.53-.34l-1.29-2.83-1.49 1.21a.593.593 0 0 1-.96-.47V11.6c0-.33.26-.6.59-.6.15 0 .29.05.41.13l6.77 5.76c.27.23.3.61.09.85M12 15v-5H7v5zm7-12h-1V1h-2v2H8V1H6v2H5a2 2 0 0 0-2 2v14a2 2 0 0 0 2 2h8v-2H5V8h14v3.06l2 1.7V5c0-1.1-.9-2-2-2"/></svg>

<svg  viewBox="0 0 24 24" fill="currentColor"><path  d="M22.86 17.74C22.77 17.85 22.65 17.91 22.53 17.94L20.66 18.3L21.95 21.14C22.11 21.43 21.97 21.79 21.67 21.93L19.53 22.94C19.44 23 19.36 23 19.27 23C19.05 23 18.84 22.88 18.74 22.66L17.45 19.83L15.96 21.04C15.86 21.12 15.74 21.17 15.59 21.17C15.26 21.17 15 20.9 15 20.57V11.6C15 11.27 15.26 11 15.59 11C15.74 11 15.88 11.05 16 11.13L22.77 16.89C23.04 17.12 23.07 17.5 22.86 17.74M12 15V10H7V15H12M19 3H18V1H16V3H8V1H6V3H5C3.89 3 3 3.9 3 5V19C3 20.1 3.89 21 5 21H13V19H5V8H19V11.06L21 12.76V5C21 3.9 20.1 3 19 3Z"/></svg>
